Origami/32x32/apps/megaglest.svg

<svg width="32" height="32" version="1" xmlns="http://www.w3.org/2000/svg">
 <path d="m10.5 2.9997917a8.5 12.5 0 0 0 -8.5 12.5 8.5 12.5 0 0 0 3.671875 10.283203c-0.9552245 0.14387-1.6445313 0.261719-1.6445312 0.261719a2.50025 2.50025 0 1 0 0.9453124 4.910156c1e-7 0 4.9945091-0.955078 11.027344-0.955078 6.032834 0 11.027344 0.955078 11.027344 0.955078a2.50025 2.50025 0 1 0 0.945312 -4.910156s-0.69479-0.117074-1.65625-0.261719a8.5 12.5 0 0 0 3.683594 -10.283203 8.5 12.5 0 0 0 -8.5 -12.5 8.5 12.5 0 0 0 -5.494141 2.9804688 8.5 12.5 0 0 0 -5.505859 -2.9804688z" style="opacity:.2"/>
 <ellipse cx="10.5" cy="14.5" rx="8.5" ry="12.5" style="fill:#fbba22"/>
 <ellipse cx="21.5" cy="14.5" rx="8.5" ry="12.5" style="fill:#fbba22"/>
 <path d="m4.5 27.5s5.2025096-1 11.5-1c6.29749 0 11.5 1 11.5 1" style="fill:none;stroke-linecap:round;stroke-linejoin:round;stroke-width:5;stroke:#ea8504"/>
 <path d="m10.435547 6c-0.6169641 0-1.6717496 0.3695558-2.6445314 1.8691406-0.9727789 1.4995847-1.7539062 3.9626894-1.7539062 6.7597654 0 2.797075 0.7811273 5.260181 1.7539062 6.759766 0.4543262 0.700363 1.0046368 1.516113 1.4453125 1.951172 1.4038299-0.1367 3.0238459-0.24864 4.7636719-0.302735v-12.875c-0.293873-0.8948053-0.722461-1.6784548-1.121094-2.2929684-0.972781-1.4995848-1.826396-1.8691406-2.443359-1.8691406zm11.195312 0c-0.616964 0-1.470578 0.3695558-2.443359 1.8691406-0.398634 0.6145136-0.893626 1.3981631-1.1875 2.2929684v12.875c1.764841 0.054873 3.402541 0.169383 4.820312 0.308594 0.441765-0.432822 0.996107-1.252517 1.453126-1.957031 0.972778-1.499585 1.755859-3.962691 1.755859-6.759766 0-2.797076-0.78308-5.2601807-1.755859-6.7597654-0.972782-1.4995848-2.025615-1.8691406-2.642579-1.8691406z" style="opacity:.3"/>
 <path d="M 10.5,2 C 5.8055796,2 2,7.5964406 2,14.5 c 0.003,0.138122 0.00756,0.276162 0.013672,0.414062 C 2.2263825,8.2481107 5.9621656,3.0033982 10.5,3 12.517661,3.001019 14.469284,4.0574845 16.005859,5.9804688 17.539364,4.0613186 19.48637,3.0051042 21.5,3 c 4.583815,0.00732 8.338073,5.3583214 8.486328,12.095703 C 29.994104,14.897323 29.998663,14.698699 30,14.5 30,7.5964406 26.19442,2 21.5,2 19.48637,2.0051042 17.539364,3.0613186 16.005859,4.9804688 14.469284,3.0574845 12.517661,2.001019 10.5,2 Z" style="fill:#ffffff;opacity:.2"/>
</svg>

<svg xmlns="http://www.w3.org/2000/svg" width="32" height="32" version="1">
 <path style="opacity:0.2" d="M 10.5,2.9997917 A 8.5,12.5 0 0 0 2,15.499792 8.5,12.5 0 0 0 5.671875,25.782995 c -0.9552245,0.14387 -1.6445313,0.261719 -1.6445312,0.261719 a 2.50025,2.50025 0 1 0 0.9453124,4.910156 c 10e-8,0 4.9945091,-0.955078 11.0273438,-0.955078 6.032834,0 11.027344,0.955078 11.027344,0.955078 a 2.50025,2.50025 0 1 0 0.945312,-4.910156 c 0,0 -0.69479,-0.117074 -1.65625,-0.261719 A 8.5,12.5 0 0 0 30,15.499792 8.5,12.5 0 0 0 21.5,2.9997917 8.5,12.5 0 0 0 16.005859,5.9802605 8.5,12.5 0 0 0 10.5,2.9997917 Z"/>
 <ellipse style="fill:#fbba22" cx="10.5" cy="14.5" rx="8.5" ry="12.5"/>
 <ellipse style="fill:#fbba22" cx="21.5" cy="14.5" rx="8.5" ry="12.5"/>
 <path style="fill:none;stroke:#ea8504;stroke-width:5;stroke-linecap:round;stroke-linejoin:round" d="m 4.5,27.5 c 0,0 5.2025096,-1 11.5,-1 6.29749,0 11.5,1 11.5,1"/>
 <path style="opacity:0.3" d="M 10.435547 6 C 9.8185829 6 8.7637974 6.3695558 7.7910156 7.8691406 C 6.8182367 9.3687253 6.0371094 11.83183 6.0371094 14.628906 C 6.0371094 17.425981 6.8182367 19.889087 7.7910156 21.388672 C 8.2453418 22.089035 8.7956524 22.904785 9.2363281 23.339844 C 10.640158 23.203144 12.260174 23.091204 14 23.037109 L 14 10.162109 C 13.706127 9.2673037 13.277539 8.4836542 12.878906 7.8691406 C 11.906125 6.3695558 11.05251 6 10.435547 6 z M 21.630859 6 C 21.013895 6 20.160281 6.3695558 19.1875 7.8691406 C 18.788866 8.4836542 18.293874 9.2673037 18 10.162109 L 18 23.037109 C 19.764841 23.091982 21.402541 23.206492 22.820312 23.345703 C 23.262077 22.912881 23.816419 22.093186 24.273438 21.388672 C 25.246216 19.889087 26.029297 17.425981 26.029297 14.628906 C 26.029297 11.83183 25.246217 9.3687253 24.273438 7.8691406 C 23.300656 6.3695558 22.247823 6 21.630859 6 z"/>
 <path style="opacity:0.2;fill:#ffffff" d="M 10.5,2 C 5.8055796,2 2,7.5964406 2,14.5 c 0.003,0.138122 0.00756,0.276162 0.013672,0.414062 C 2.2263825,8.2481107 5.9621656,3.0033982 10.5,3 12.517661,3.001019 14.469284,4.0574845 16.005859,5.9804688 17.539364,4.0613186 19.48637,3.0051042 21.5,3 c 4.583815,0.00732 8.338073,5.3583214 8.486328,12.095703 C 29.994104,14.897323 29.998663,14.698699 30,14.5 30,7.5964406 26.19442,2 21.5,2 19.48637,2.0051042 17.539364,3.0613186 16.005859,4.9804688 14.469284,3.0574845 12.517661,2.001019 10.5,2 Z"/>
</svg>
